!!!OTL: 424. Rueckkehr aus der Fremde.
!!!COM: Volkslied
!!!ARE: Europa, Mitteleuropa, Deutschland, Oberdiebach; Laubenheim (Nahe)
!!!SCT: B0424
!!!TXL: @@DE
!!!YEM: Copyright 1995, estate of Helmut Schaffrath.
**kern	**text
*ICvox	*
*Ivox	*
*clefG2	*
*M3/4	*
*k[f#]	*
*G:	*
!LO:TX:a:t=Mäßig.	!
{4g	Dort
=1	=1
4f#	un-
4e	-ten
4d	im
=2	=2
4b	Tha-
4.b	-le,
8a	wo's
=3	=3
4g	Bach-
4g	-lein
4b	ſo
=4	=4
2d}	rauſcht,
{4g	da
=5	=5
4f#	hab'
4f#	ich
4f#	mein
=6	=6
4f#	Schä-
4e	-tʒel
4f#	ſo
=7	=7
4g	oft-
4g	-mals
4g	be-
=8	=8
2d}	-lauſcht;
{4g	da
=9	=9
4f#	hab'n
4e	wir
4d	ge-
=10	=10
4b	-ſeſ-
4.b	-ſen
8a	die
=11	=11
4g	lie_be
4g	lan-
4b	-ge
=12	=12
2d}	Nacht
{4g	und
=13	=13
4f#	hab'n
4f#	an
4f#	die
=14	=14
4f#	Ʒu-
4e	-kunft
4f#	ge-
=15	=15
[2.g	-dacht.
=16	=16
4g]	.
4r}	.
{4g	Hei-
=17	=17
2f#	-di,
4a	hei-
=18	=18
2ee	-da,
4dd	hei-
=19	=19
4.b	-dal-
8b	-la-
4b	-la-
=20	=20
2g}	-la!
{4b	und
=21	=21
4cc	hab'n
4cc	an
4a	die
=22	=22
4f#	Ʒu-
4e	-kunft
4f#	ge-
=23	=23
[2.g	-dacht.
=24	=24
4g]	.
4r}	.
==	==
!!!AGN: Liebes - Lied, Liebes - Lust
!!!GTL: Liebeslieder - Liebeslust
!!!ONB: ESAC (Essen Associative Code) Database: BOEHME
!!!AMT: simple triple
!!!AIN: vox
!!!EED: Helmut Schaffrath
!!!EEV: 1.0
!!Mündlich aus Oberdiebach a. Rh. und Laubenheim an der Nahe. 1895.
!!@@COMMENT:"Volkslied. Text durch Herrn K. Becker. Melodie durch den Lehrer Herrn K. Nachtigall
!!in Oberdiebach am Rhein.
!!Var. 1, 1 Wäſſerlein rauſcht. 1, 4 haben geküßt und gelacht."
!!@@END:
!!!Text: K. Becker
!!!URL-scan: https://archive.org/details/BoehmeVtLieder1895/page/n347/mode/2up
!!!ENC: Anna Maria Matuszewska
!!!EEV: 2024/08/07
*-	*-
